X:1
T:This Is the Winter Morn
T:This Is the Winter Morn
T:Arranged by L. H. Thomas 
T:Osgood Eaton Fuller, 1885
T:Public Domain Courtesy of the Cyber Hymnal™
T:Public Domain Courtesy of the Cyber Hymnal™
C:Arranged by L. H. Thomas
Z:Public Domain
Z:Courtesy of the Cyber Hymnal™
%%score ( 1 2 ) 3 ( 4 5 )
L:1/8
Q:1/4=100
M:4/4
K:D
V:1 treble 
V:2 treble 
V:3 treble 
V:4 bass 
V:5 bass 
V:1
 [FA]2 x6 | [^E^G][FA] [=GB]2 [FA]2 x2 | [Fd]4 z2 [Ad]2 | [Gc]3 [Gd] [Ge]2 [GA]2 | [Fd]4 z2 [Fd]2 | %5
w: 1.~This|is the win- ter|morn, Our|Sav- ior, Christ, was|born, Who|
w: 2.~Ring,|ring, O hap- py|bells! A|bless- èd an- gel|tells The|
w: 3.~The|shep- herds vi- gil|keep And|watch by night their|sheep; Up-|
w: 4.~All|in the low- ly|place They|find the roy- al|grace, And|
w: 5.~Their|grate- ful hearts are|full Of|things most beau- ti-|ful; And|
 [Ge]3 [Gd] [Gc]2 [GB]2 | [FA]2 [Af]2 [Fd]2 [Fd]2 | [Ec]3 [Fd] [Ge]2 [GA]2 | [Fd]6 z A | %9
w: left the realms of|end- less day, To|take our sins a-|way. Have|
w: sto- ry of His|hum- ble birth, Who|came this day to|earth. Have|
w: on the plains of|Beth- le- hem What|glo- ry comes to|them! Have|
w: lo! they fall a-|wor- ship- ping Be-|fore the new- born|King. Have|
w: lo! the won- der|of the Lord They|straight- way spread a-|broad. Have|
 A3 A ^GABA | d6 A2 | c3 B A^ABG | F6 A2 | d3 A AAdA | B6 (cd) | d3 A cBGE | D6 || %17
w: ye no car- ol for the|Lord, To|spread His love, His love a-|broad? Have|ye no car- ol for the|Lord, To *|spread His love, His love a-|broad?|
w: ye no car- ol for the|Lord, To|spread His love, His love a-|broad? Have|ye no car- ol for the|Lord, To *|spread His love, His love a-|broad?|
w: ye from Heav’n no glo- ry|felt, Who|all, who all in prayer have|knelt? Have|ye from Heav’n no glo- ry|felt, Who *|all, who all in prayer have|knelt?|
w: ye no wor- ship for the|Lord, To|give, to give with one ac-|cord? Have|ye no wor- ship for the|Lord, To *|give, to give with one ac-|cord?|
w: ye no beau- ty of the|Christ Whose|love, whose love has long suf-|ficed? Have|ye no beau- ty of the|Christ Whose *|love, whose love has long suf-|ficed?|
[Q:1/4=110]"^Refrain" [FA]2 x6 | [Fd]4 [FA]2 [FA]2 | [Ge]6 A2 | ([Ff]2 [Ad]2) (B2 e2) | %21
w: Ho-|san- na! from|all our|hearts * we *|
w: Ho-|san- na! from|all our|hearts * we *|
w: Ho-|san- na! in|all our|hearts * is *|
w: Ho-|san- na! in|all our|hearts * we *|
w: Ho-|san- na! from|all our|hearts * we *|
 [Ec]4 z2 [GA]2 | [Fd]4 [FA]2 [FA]2 | [Ge]4 [GA]2 [GA]2 | ([Ff]2 [Ad]2) (B2 e2) | [Fd]4 [Ec]4 | %26
w: raise, Ho-|san- na! Ho-|san- na! And|make * our *|lives His|
w: pour, Ho-|san- na! Ho-|san- na! And|bless * Him *|ev- er-|
w: light, Ho-|san- na! Ho-|san- na! God’s|wor- * ship *|is de-|
w: bring, Ho-|san- na! Ho-|san- na! Our|lives * our *|of- fer-|
w: raise, Ho-|san- na! Ho-|san- na! And|car- * ry *|hence His|
 [Fd]6 |] %27
w: praise.|
w: more.|
w: light.|
w: ing.|
w: praise.|
V:2
 x8 | x8 | x8 | x8 | x8 | x8 | x8 | x8 | x8 | x8 | x8 | x8 | x8 | x8 | x8 | x8 | x6 || x8 | x8 | %19
 x6 A2 | x4 G4 | x8 | x8 | x8 | x4 G4 | x8 | x6 |] %27
V:3
 z (A,[DF]A,) z (A,[DF]A,) | z (A,[DF]A,) z (A,[DF]A,) | z (A,[CG]A,) z (A,[CG]A,) | %3
 z (A,[DF]A,) z (A,[DF]A,) | z ([A,=CF][A,CF][A,CF]) z ([A,CF][A,CF][A,CF]) | %5
 z ([B,DG][B,DG][B,DG]) z ([^G,B,D=F][G,B,DF][G,B,DF]) | [A,DF]2 z2 [A,CG]2 z2 | [A,DF]6 x2 | x8 | %9
 x8 | x8 | x8 | x8 | x8 | x8 | x8 | x6 || x8 | x8 | x8 | x8 | x8 | x8 | x8 | x8 | x8 | x6 |] %27
V:4
 [D,A,]2 [D,B,][D,A,] [D,D]2 [D,D]2 | [D,A,]4 z2 [F,D]2 | [A,E]3 [A,D] [A,C]2 [A,E]2 | %3
 [D,D]4 z2 [D,A,]2 | [A,C]3 [A,D] [A,E]2 [A,,C]2 | [D,D]2 [D,D]2 [D,A,]2 [D,A,]2 | %6
 A,3 A, A,2 [A,C]2 | [D,D]6 z2 | D,2 z2 D,2 z2 | D,2 z2 D,2 z2 | E,2 z2 D,2 A,,2 | D,2 z2 D,2 z2 | %12
 D,2 z2 D,,2 z2 | G,,2 z2 ^G,,2 z2 | A,,2 z2 A,,2 z2 | [D,,D,]6 x2 | [D,A,]2 x4 || %17
 [D,A,]4 [D,A,]2 [D,A,]2 | [C,A,]6 [C,A,]2 | A,4 B,4 | A,4 z2 A,2 | [D,A,]4 [D,D]2 [D,A,]2 | %22
 [C,A,]4 [C,A,]2 [C,A,]2 | A,4 B,4 | A,4 [A,,A,]4 | [D,A,]6 x2 | x6 |] %27
V:5
 x8 | x8 | x8 | x8 | x8 | x8 | A,3 A, A,2 x2 | x8 | x8 | x8 | x8 | x8 | x8 | x8 | x8 | x8 | x6 || %17
 x8 | x8 | (D,2 F,2) (G,2 E,2) | A,4 A,2 x2 | x8 | x8 | (D,2 F,2) (G,2 E,2) | A,4 x4 | x8 | x6 |] %27

